static/images/aflogo.svg

<?xml version="1.0" encoding="UTF-8"?>
<!-- Created with Inkscape (http://www.inkscape.org/) -->
<svg width="316.6" height="38.448" version="1.1" viewBox="0 0 316.6 38.448" xmlns="http://www.w3.org/2000/svg" xmlns:cc="http://creativecommons.org/ns#" xmlns:dc="http://purl.org/dc/elements/1.1/" xmlns:rdf="http://www.w3.org/1999/02/22-rdf-syntax-ns#">
 <metadata>
  <rdf:RDF>
   <cc:Work rdf:about="">
    <dc:format>image/svg+xml</dc:format>
    <dc:type rdf:resource="http://purl.org/dc/dcmitype/StillImage"/>
    <dc:title/>
   </cc:Work>
  </rdf:RDF>
 </metadata>
 <defs>
  <linearGradient id="SVGID_2_" x1="166.15" x2="345.85" y1="256" y2="256" gradientUnits="userSpaceOnUse">
   <stop stop-color="#587aa1" offset="0"/>
   <stop stop-color="#455f80" offset="1"/>
  </linearGradient>
 </defs>
 <flowRoot transform="matrix(.080652 0 0 .080652 -27.051 12.568)" fill="#000000" font-family="sans-serif" font-size="40px" letter-spacing="0px" word-spacing="0px" style="line-height:1.25" xml:space="preserve"><flowRegion><rect x="597.6" y="-61.445" width="1912.3" height="64.028"/></flowRegion><flowPara/></flowRoot>
 <text x="222.05922" y="19.760572" fill="#000000" font-family="sans-serif" font-size="31.918px" letter-spacing="0px" stroke-width=".79794" word-spacing="0px" style="line-height:1.25" xml:space="preserve"><tspan x="222.05922" y="48.51062" font-family="'Bitstream Charter'" font-size="31.834px" font-weight="bold" stroke-width=".79794"/></text>
 <g transform="matrix(.074305 0 0 .074305 135.55 26.76)">
  <circle cx="529.83" cy="-104.13" r="256" fill="#5c77ff" fill-opacity=".5451"/>
  <g transform="translate(273.83 -360.13)">
   <path d="m172.98 77c-53.006 0-95.976 80.141-95.976 179s42.97 179 95.976 179c35.444 0 66.402-35.839 83.024-89.143v-179.71c-16.622-53.304-47.579-89.143-83.024-89.143z" fill="#e5f7ff"/>
   <path d="m339.02 77c-35.445 0-66.402 35.839-83.024 89.143v179.72c16.622 53.303 47.579 89.142 83.024 89.142 53.006 0 95.976-80.141 95.976-179s-42.97-179-95.976-179z" fill="#bfebff"/>
   <path d="m314.58 114.56c-23.59 0-44.663 20.083-58.575 51.578v179.72c13.911 31.496 34.985 51.579 58.575 51.579 41.891 0 75.85-63.323 75.85-141.44s-33.96-141.44-75.85-141.44z" fill="#85d9ff"/>
   <path d="m197.42 114.56c-41.891 0-75.85 63.323-75.85 141.44s33.959 141.44 75.85 141.44c23.59 0 44.663-20.083 58.575-51.579v-179.71c-13.912-31.496-34.985-51.579-58.575-51.579z" fill="#bfebff"/>
   <circle cx="256" cy="256" r="89.85" fill="url(#SVGID_2_)"/>
  </g>
 </g>
 <text x="-0.15909335" y="31.885378" fill="#000000" font-family="sans-serif" font-size="40.835px" letter-spacing="0px" stroke-width="1.0209" word-spacing="0px" style="line-height:1.25" xml:space="preserve"><tspan x="-0.15909335" y="31.885378" dx="0" font-family="Carlito" font-size="40.728px" letter-spacing="-1.5px" stroke-width="1.0209">Academia      Faraday </tspan></text>
</svg>

<?xml version="1.0" encoding="UTF-8" standalone="no"?>
<!-- Created with Inkscape (http://www.inkscape.org/) -->

<svg
   xmlns:dc="http://purl.org/dc/elements/1.1/"
   xmlns:cc="http://creativecommons.org/ns#"
   xmlns:rdf="http://www.w3.org/1999/02/22-rdf-syntax-ns#"
   xmlns:svg="http://www.w3.org/2000/svg"
   xmlns="http://www.w3.org/2000/svg"
   xmlns:sodipodi="http://sodipodi.sourceforge.net/DTD/sodipodi-0.dtd"
   xmlns:inkscape="http://www.inkscape.org/namespaces/inkscape"
   version="1.1"
   id="svg2"
   width="316.60477"
   height="38.447979"
   viewBox="0 0 316.60476 38.447981"
   sodipodi:docname="aflogo.svg"
   inkscape:version="0.92.3 (2405546, 2018-03-11)"
   inkscape:export-filename="/home/gsalinas/Hugo/academiafaraday/static/images/site-navigation/logo.png"
   inkscape:export-xdpi="10"
   inkscape:export-ydpi="10">
  <metadata
     id="metadata8">
    <rdf:RDF>
      <cc:Work
         rdf:about="">
        <dc:format>image/svg+xml</dc:format>
        <dc:type
           rdf:resource="http://purl.org/dc/dcmitype/StillImage" />
        <dc:title />
      </cc:Work>
    </rdf:RDF>
  </metadata>
  <defs
     id="defs6">
    <inkscape:path-effect
       effect="spiro"
       id="path-effect847"
       is_visible="true" />
    <inkscape:path-effect
       effect="spiro"
       id="path-effect843"
       is_visible="true" />
    <inkscape:path-effect
       effect="spiro"
       id="path-effect839"
       is_visible="true" />
    <inkscape:path-effect
       effect="spiro"
       id="path-effect835"
       is_visible="true" />
    <clipPath
       clipPathUnits="userSpaceOnUse"
       id="clipPath823">
      <rect
         style="fill:#ffffff;fill-opacity:1;stroke:none;stroke-width:3.77952766;stroke-miterlimit:4;stroke-dasharray:none;stroke-opacity:1"
         id="rect825"
         width="65.095406"
         height="67.763252"
         x="-12.805654"
         y="-10.222615"
         rx="32.000702"
         ry="32.000702" />
    </clipPath>
    <linearGradient
       id="SVGID_2_"
       gradientUnits="userSpaceOnUse"
       x1="166.14999"
       x2="345.85001"
       y1="256"
       y2="256">
      <stop
         offset="0"
         stop-color="#587aa1"
         id="stop7" />
      <stop
         offset="1"
         stop-color="#455f80"
         id="stop9" />
    </linearGradient>
  </defs>
  <sodipodi:namedview
     pagecolor="#ffffff"
     bordercolor="#666666"
     borderopacity="1"
     objecttolerance="10"
     gridtolerance="10"
     guidetolerance="10"
     inkscape:pageopacity="0"
     inkscape:pageshadow="2"
     inkscape:window-width="1920"
     inkscape:window-height="1017"
     id="namedview4"
     showgrid="false"
     inkscape:zoom="2.56"
     inkscape:cx="97.688472"
     inkscape:cy="23.635061"
     inkscape:window-x="0"
     inkscape:window-y="30"
     inkscape:window-maximized="1"
     inkscape:current-layer="svg2" />
  <g
     id="g3830">
    <g
       id="g925"
       transform="matrix(0.0743053,0,0,0.0743053,135.55377,26.759622)">
      <circle
         cx="529.83392"
         cy="-104.13074"
         r="256"
         id="circle12"
         style="fill:#5c77ff;fill-opacity:0.54509804" />
      <g
         transform="translate(273.83392,-360.13074)"
         id="g24">
        <path
           d="M 172.976,77 C 119.97,77 77,157.141 77,256 c 0,98.859 42.97,179 95.976,179 35.444,0 66.402,-35.839 83.024,-89.143 V 166.143 C 239.378,112.839 208.421,77 172.976,77 Z"
           id="path14"
           inkscape:connector-curvature="0"
           style="fill:#e5f7ff" />
        <path
           d="M 339.024,77 C 303.579,77 272.622,112.839 256,166.143 V 345.858 C 272.622,399.161 303.579,435 339.024,435 392.03,435 435,354.859 435,256 435,157.141 392.03,77 339.024,77 Z"
           id="path16"
           inkscape:connector-curvature="0"
           style="fill:#bfebff" />
        <path
           d="m 314.575,114.564 c -23.59,0 -44.663,20.083 -58.575,51.578 v 179.715 c 13.911,31.496 34.985,51.579 58.575,51.579 41.891,0 75.85,-63.323 75.85,-141.436 0,-78.113 -33.96,-141.436 -75.85,-141.436 z"
           id="path18"
           inkscape:connector-curvature="0"
           style="fill:#85d9ff" />
        <path
           d="m 197.425,114.564 c -41.891,0 -75.85,63.323 -75.85,141.436 0,78.113 33.959,141.436 75.85,141.436 23.59,0 44.663,-20.083 58.575,-51.579 V 166.143 c -13.912,-31.496 -34.985,-51.579 -58.575,-51.579 z"
           id="path20"
           inkscape:connector-curvature="0"
           style="fill:#bfebff" />
        <circle
           cx="256"
           cy="256"
           r="89.849998"
           id="circle22"
           style="fill:url(#SVGID_2_)" />
      </g>
    </g>
    <text
       xml:space="preserve"
       style="font-style:normal;font-weight:normal;font-size:40.83548355px;line-height:1.25;font-family:sans-serif;letter-spacing:0px;word-spacing:0px;fill:#000000;fill-opacity:1;stroke:none;stroke-width:1.02088702"
       x="-0.15909335"
       y="31.885378"
       id="text819-3"><tspan
         sodipodi:role="line"
         id="tspan817-6"
         x="-0.15909335"
         y="31.885378"
         style="font-style:normal;font-variant:normal;font-weight:normal;font-stretch:normal;font-size:40.72789764px;font-family:Carlito;-inkscape-font-specification:Carlito;letter-spacing:-1.5px;stroke-width:1.02088702"
         dx="0">Academia      Faraday </tspan></text>
  </g>
</svg>
